public/static/img/user/lock.svg

<svg width="34" height="34" viewBox="0 0 34 34" fill="none" xmlns="http://www.w3.org/2000/svg">
<circle cx="17" cy="17" r="17" fill="white" fill-opacity="0.1"/>
<path d="M23.5252 15.798H24.3838C24.858 15.798 25.2424 16.1824 25.2424 16.6566V25.2425C25.2424 25.7167 24.858 26.101 24.3838 26.101H10.6464C10.1722 26.101 9.78784 25.7167 9.78784 25.2425V16.6566C9.78784 16.1824 10.1722 15.798 10.6464 15.798H11.505V14.9394C11.505 11.6201 14.1958 8.92932 17.5151 8.92932C20.8344 8.92932 23.5252 11.6201 23.5252 14.9394V15.798ZM11.505 17.5152V24.3839H23.5252V17.5152H11.505ZM16.6565 19.2324H18.3737V22.6667H16.6565V19.2324ZM21.808 15.798V14.9394C21.808 12.5685 19.886 10.6465 17.5151 10.6465C15.1442 10.6465 13.2222 12.5685 13.2222 14.9394V15.798H21.808Z" fill="white"/>
</svg>

<svg width="34" height="34" fill="none" xmlns="http://www.w3.org/2000/svg"><circle cx="17" cy="17" r="17" fill="#fff" fill-opacity=".1"/><path d="M23.525 15.798h.859c.474 0 .858.384.858.859v8.585a.859.859 0 0 1-.858.859H10.646a.858.858 0 0 1-.858-.858v-8.586c0-.475.384-.859.858-.859h.859v-.859a6.01 6.01 0 1 1 12.02 0v.859Zm-12.02 1.717v6.869h12.02v-6.869h-12.02Zm5.152 1.717h1.717v3.435h-1.717v-3.435Zm5.151-3.434v-.859a4.293 4.293 0 0 0-8.586 0v.859h8.586Z" fill="#fff"/></svg>
